packages/icons/raw/imported/SportGreyhound.svg

<svg width="32" height="32" viewBox="0 0 32 32" fill="none" xmlns="http://www.w3.org/2000/svg">
<path d="M26.4978 17.7449L26.1372 18.0913L26.1398 18.094L26.4978 17.7449ZM23.6131 14.9965L23.3019 15.3878L23.6131 14.9965ZM21.3137 12.2695L21.7314 11.9946C21.7285 11.9902 21.7255 11.9859 21.7225 11.9816L21.3137 12.2695ZM19.0937 9.81796L19.4174 9.43682L19.4113 9.43185L19.0937 9.81796ZM17.7679 9.06802L17.2694 9.10641C17.2836 9.29081 17.3984 9.45232 17.5679 9.52629L17.7679 9.06802ZM17.2085 7.68738L17.0897 8.17323L17.1016 8.17583L17.2085 7.68738ZM15.2467 7.44245L15.0591 7.90591C15.0702 7.91041 15.0815 7.91451 15.0929 7.9182L15.2467 7.44245ZM13.9281 7.02215L13.8242 6.53303L13.8198 6.53402L13.9281 7.02215ZM11.6417 9.07228L11.2698 8.73809C11.1508 8.87055 11.1112 9.05633 11.1659 9.22581C11.2206 9.39529 11.3613 9.5229 11.5353 9.56082L11.6417 9.07228ZM12.8815 9.34244L13.0641 9.80789C13.2692 9.72742 13.3975 9.52223 13.3799 9.30264C13.3624 9.08305 13.2032 8.90081 12.988 8.8539L12.8815 9.34244ZM9.47122 10.8541L9.65995 11.3171C9.68477 11.307 9.70875 11.2949 9.73163 11.2809L9.47122 10.8541ZM4.64254 13.8073C4.44946 14.0047 4.45298 14.3213 4.6504 14.5144C4.84782 14.7075 5.16438 14.7039 5.35746 14.5065L4.64254 13.8073ZM7.8851 24.7627C7.75405 25.0058 7.84487 25.3091 8.08794 25.4401C8.33101 25.5712 8.63428 25.4803 8.76533 25.2373L7.8851 24.7627ZM10.4498 21.3965L10.051 21.0948L10.0506 21.0953L10.4498 21.3965ZM14.218 16.6855L14.4612 17.1225L14.4677 17.1187L14.218 16.6855ZM18.1088 17.0463L18.1798 16.5512L18.1669 16.5497L18.1088 17.0463ZM21.6633 19.1528L21.8257 18.6799H21.8257L21.6633 19.1528ZM25.9302 19.5106L25.8191 19.023L25.8133 19.0244L25.9302 19.5106ZM26.9992 18.5551L27.4972 18.5102C27.4962 18.5001 27.495 18.4899 27.4935 18.4798L26.9992 18.5551ZM8.09943 12.2931C8.17276 12.0269 8.01638 11.7516 7.75015 11.6783C7.48392 11.605 7.20866 11.7613 7.13533 12.0276L8.09943 12.2931ZM10.0348 22.3416C10.3102 22.3224 10.518 22.0835 10.4988 21.808C10.4796 21.5326 10.2407 21.3248 9.96522 21.344L10.0348 22.3416ZM26.4978 17.7449C26.8585 17.3986 26.8584 17.3986 26.8584 17.3986C26.8584 17.3985 26.8584 17.3985 26.8583 17.3985C26.8583 17.3984 26.8582 17.3983 26.858 17.3982C26.8578 17.3979 26.8574 17.3975 26.8569 17.397C26.856 17.396 26.8546 17.3946 26.8528 17.3927C26.8491 17.3889 26.8437 17.3833 26.8367 17.376C26.8227 17.3615 26.8021 17.3401 26.7755 17.3127C26.7224 17.258 26.6456 17.179 26.5502 17.0816C26.3595 16.8871 26.0943 16.619 25.7962 16.3247C25.2053 15.7414 24.467 15.0368 23.9244 14.6052L23.3019 15.3878C23.7976 15.7822 24.5016 16.4518 25.0936 17.0363C25.3869 17.3258 25.6481 17.5899 25.8361 17.7817C25.93 17.8775 26.0055 17.9551 26.0574 18.0087C26.0834 18.0355 26.1035 18.0563 26.117 18.0703C26.1237 18.0773 26.1289 18.0826 26.1323 18.0861C26.134 18.0879 26.1352 18.0892 26.1361 18.0901C26.1365 18.0905 26.1368 18.0908 26.137 18.091C26.1371 18.0911 26.1371 18.0912 26.1372 18.0912C26.1372 18.0913 26.1372 18.0913 26.1372 18.0913C26.1372 18.0913 26.1372 18.0913 26.4978 17.7449ZM23.9244 14.6052C22.9573 13.8359 22.1603 12.646 21.7314 11.9946L20.8961 12.5445C21.316 13.1822 22.1922 14.5052 23.3019 15.3878L23.9244 14.6052ZM21.7225 11.9816C21.4743 11.6291 21.0071 11.0867 20.5619 10.5995C20.1184 10.1141 19.6582 9.6414 19.4173 9.43687L18.77 10.199C18.9567 10.3576 19.3782 10.7865 19.8237 11.274C20.2675 11.7598 20.6966 12.2615 20.9049 12.5574L21.7225 11.9816ZM19.4113 9.43185C19.1454 9.21301 18.7729 9.0053 18.493 8.86142C18.348 8.78689 18.2179 8.72451 18.124 8.6807C18.0769 8.65875 18.0386 8.64134 18.0118 8.62927C17.9984 8.62323 17.9878 8.61852 17.9803 8.61524C17.9766 8.61359 17.9737 8.61231 17.9716 8.61139C17.9706 8.61093 17.9697 8.61056 17.9691 8.61029C17.9688 8.61015 17.9685 8.61004 17.9683 8.60995C17.9682 8.6099 17.9681 8.60986 17.9681 8.60983C17.968 8.60981 17.968 8.60979 17.968 8.60979C17.9679 8.60977 17.9679 8.60975 17.7679 9.06802C17.5679 9.52629 17.5679 9.52627 17.5679 9.52626C17.5679 9.52626 17.5678 9.52624 17.5678 9.52624C17.5678 9.52623 17.5678 9.52623 17.5678 9.52623C17.5678 9.52623 17.5679 9.52626 17.568 9.52631C17.5682 9.52641 17.5686 9.5266 17.5693 9.52688C17.5706 9.52744 17.5726 9.52836 17.5755 9.52962C17.5812 9.53216 17.59 9.53607 17.6016 9.54127C17.6247 9.55168 17.6588 9.56719 17.7014 9.58703C17.7867 9.6268 17.9049 9.68348 18.0359 9.7508C18.3079 9.89064 18.5983 10.0579 18.776 10.2041L19.4113 9.43185ZM17.7679 9.06802C18.2664 9.02962 18.2664 9.02953 18.2664 9.02944C18.2664 9.0294 18.2664 9.0293 18.2664 9.02922C18.2664 9.02907 18.2664 9.02889 18.2664 9.0287C18.2663 9.02831 18.2663 9.02785 18.2663 9.0273C18.2662 9.02622 18.2661 9.02482 18.2659 9.02312C18.2656 9.01973 18.2652 9.01513 18.2647 9.0094C18.2637 8.99795 18.2622 8.98195 18.2602 8.96201C18.2561 8.92221 18.2498 8.86636 18.2408 8.79945C18.2229 8.66697 18.1932 8.4849 18.1464 8.29547C18.1008 8.11122 18.0327 7.89357 17.9281 7.70403C17.8328 7.53137 17.646 7.27128 17.3153 7.19894L17.1016 8.17583C17.0014 8.15391 16.9998 8.09161 17.0526 8.18727C17.0961 8.26605 17.139 8.38726 17.1756 8.53556C17.211 8.67869 17.2349 8.82286 17.2498 8.93349C17.2572 8.98814 17.2622 9.03307 17.2654 9.06365C17.2669 9.0789 17.268 9.0905 17.2687 9.09784C17.269 9.10151 17.2692 9.10411 17.2693 9.10556C17.2694 9.10629 17.2694 9.10673 17.2694 9.10687C17.2694 9.10695 17.2694 9.10695 17.2694 9.10687C17.2694 9.10683 17.2694 9.10677 17.2694 9.1067C17.2694 9.10666 17.2694 9.10659 17.2694 9.10657C17.2694 9.10649 17.2694 9.10641 17.7679 9.06802ZM17.3272 7.20168C17.0305 7.12916 16.599 7.10248 16.2514 7.07647C15.8566 7.04694 15.5583 7.01769 15.4006 6.9667L15.0929 7.9182C15.3902 8.01433 15.8272 8.04754 16.1768 8.07369C16.5734 8.10336 16.8953 8.12557 17.0898 8.17309L17.3272 7.20168ZM15.4344 6.97899C15.3921 6.96186 15.3359 6.93087 15.2354 6.87221C15.1458 6.81992 15.0256 6.74861 14.8943 6.686C14.6245 6.55738 14.259 6.44075 13.8242 6.53305L14.0319 7.51125C14.1679 7.48237 14.2986 7.50985 14.4639 7.58866C14.5501 7.62976 14.6322 7.678 14.7313 7.73583C14.8194 7.78729 14.9383 7.85701 15.0591 7.90591L15.4344 6.97899ZM13.8198 6.53402C13.6618 6.56908 13.5135 6.65225 13.4005 6.7248C13.2773 6.8039 13.1474 6.90268 13.0189 7.00846C12.7615 7.22049 12.4807 7.48503 12.2251 7.73801C11.9681 7.99242 11.7297 8.24199 11.556 8.42746C11.469 8.52036 11.3979 8.59755 11.3483 8.65172C11.3236 8.6788 11.3041 8.70015 11.2908 8.71485C11.2842 8.7222 11.279 8.72789 11.2755 8.7318C11.2737 8.73375 11.2724 8.73526 11.2714 8.73632C11.271 8.73684 11.2706 8.73726 11.2703 8.73755C11.2702 8.7377 11.2701 8.73782 11.27 8.73791C11.27 8.73795 11.2699 8.738 11.2699 8.73802C11.2699 8.73806 11.2698 8.73809 11.6417 9.07228C12.0137 9.40647 12.0136 9.40649 12.0136 9.40649C12.0136 9.40649 12.0136 9.40649 12.0136 9.40648C12.0137 9.40645 12.0137 9.40639 12.0138 9.40631C12.014 9.40613 12.0142 9.40585 12.0146 9.40545C12.0153 9.40465 12.0164 9.40339 12.018 9.4017C12.021 9.39831 12.0257 9.39316 12.0318 9.38637C12.0441 9.37277 12.0625 9.3526 12.0861 9.32676C12.1334 9.27505 12.2019 9.20073 12.2859 9.11105C12.4542 8.93134 12.6834 8.69146 12.9286 8.44871C13.1753 8.20455 13.4314 7.96425 13.6547 7.78034C13.7666 7.68815 13.863 7.61619 13.9407 7.56635C14.0285 7.50996 14.0557 7.50599 14.0364 7.51028L13.8198 6.53402ZM11.5353 9.56082L12.775 9.83097L12.988 8.8539L11.7482 8.58375L11.5353 9.56082ZM12.8815 9.34244C12.6989 8.87699 12.6988 8.877 12.6988 8.87701C12.6988 8.87702 12.6987 8.87704 12.6987 8.87706C12.6986 8.8771 12.6985 8.87715 12.6983 8.87722C12.6979 8.87736 12.6974 8.87756 12.6968 8.87782C12.6954 8.87834 12.6935 8.87911 12.6909 8.88012C12.6858 8.88213 12.6783 8.8851 12.6684 8.88897C12.6488 8.89672 12.62 8.90811 12.5831 8.92274C12.5094 8.952 12.4035 8.99427 12.2739 9.0465C12.0148 9.15089 11.6607 9.29529 11.2811 9.45515C10.5379 9.7682 9.64761 10.1608 9.21082 10.4273L9.73163 11.2809C10.0918 11.0612 10.9066 10.698 11.6693 10.3767C12.0427 10.2195 12.3917 10.0771 12.6476 9.97403C12.7754 9.92252 12.8798 9.88088 12.9522 9.85216C12.9883 9.83781 13.0165 9.82668 13.0355 9.81918C13.045 9.81542 13.0522 9.81257 13.0571 9.81067C13.0595 9.80973 13.0613 9.80902 13.0625 9.80855C13.0631 9.80832 13.0635 9.80814 13.0638 9.80803C13.0639 9.80798 13.064 9.80794 13.0641 9.80791C13.0641 9.8079 13.0641 9.80789 13.0641 9.80789C13.0641 9.80789 13.0641 9.80789 12.8815 9.34244ZM9.2825 10.3911C7.39434 11.1607 5.48498 12.9459 4.64254 13.8073L5.35746 14.5065C6.19435 13.6508 7.97965 12.002 9.65995 11.3171L9.2825 10.3911ZM8.76533 25.2373C9.33383 24.1828 10.0533 22.752 10.8489 21.6977L10.0506 21.0953C9.19588 22.2281 8.42833 23.7551 7.8851 24.7627L8.76533 25.2373ZM10.8485 21.6982C11.0779 21.3949 11.3851 20.9711 11.7226 20.5073C12.0618 20.041 12.4347 19.5303 12.8013 19.0451C13.1687 18.5587 13.5249 18.1044 13.8309 17.7494C13.984 17.5717 14.1199 17.4244 14.2349 17.3125C14.3567 17.1939 14.4307 17.1394 14.4612 17.1224L13.9748 16.2486C13.8251 16.332 13.6744 16.4626 13.5375 16.5959C13.3937 16.7358 13.2368 16.907 13.0734 17.0965C12.7464 17.4759 12.375 17.9503 12.0034 18.4423C11.6309 18.9354 11.2533 19.4526 10.914 19.9189C10.5728 20.3877 10.2732 20.8011 10.051 21.0948L10.8485 21.6982ZM14.4677 17.1187C14.5176 17.0899 14.6882 17.0475 15.0345 17.0562C15.3527 17.0642 15.7344 17.1116 16.1296 17.1769C16.5224 17.2419 16.9135 17.3219 17.2499 17.3916C17.5708 17.4581 17.8737 17.5222 18.0508 17.5429L18.1669 16.5497C18.0462 16.5356 17.8042 16.4852 17.4527 16.4124C17.1167 16.3428 16.7077 16.2589 16.2927 16.1903C15.8799 16.1221 15.4458 16.0662 15.0597 16.0565C14.7018 16.0475 14.2798 16.0728 13.9683 16.2523L14.4677 17.1187ZM18.0379 17.5413C18.0332 17.5406 18.0747 17.5489 18.1811 17.6001C18.2775 17.6465 18.3975 17.7134 18.5392 17.7991C18.8227 17.9706 19.1601 18.1972 19.5176 18.4389C19.87 18.6771 20.2411 18.9292 20.5759 19.1391C20.8998 19.3422 21.2327 19.5336 21.5009 19.6257L21.8257 18.6799C21.6791 18.6296 21.4345 18.4971 21.107 18.2918C20.7903 18.0933 20.4359 17.8525 20.0776 17.6104C19.7244 17.3716 19.3657 17.1304 19.0568 16.9435C18.9022 16.8499 18.7518 16.765 18.6148 16.699C18.4878 16.6379 18.3328 16.5733 18.1797 16.5514L18.0379 17.5413ZM21.5009 19.6257C21.7588 19.7142 22.1447 19.7838 22.5508 19.8391C22.9684 19.896 23.4454 19.9426 23.9067 19.9766C24.3681 20.0107 24.8195 20.0325 25.1864 20.0391C25.3695 20.0424 25.5357 20.0419 25.6736 20.0368C25.7989 20.0321 25.9387 20.0228 26.0471 19.9967L25.8133 19.0244C25.8193 19.023 25.8086 19.0258 25.7717 19.0293C25.7381 19.0325 25.6932 19.0354 25.6366 19.0375C25.5234 19.0417 25.3769 19.0423 25.2042 19.0392C24.8596 19.0331 24.4272 19.0123 23.9803 18.9794C23.5333 18.9464 23.0776 18.9016 22.6858 18.8482C22.2826 18.7933 21.9825 18.7337 21.8257 18.6799L21.5009 19.6257ZM26.0413 19.9981C26.3788 19.9212 26.7262 19.7017 26.9756 19.482C27.105 19.3681 27.2296 19.2354 27.324 19.0932C27.4072 18.9679 27.5194 18.7575 27.4972 18.5102L26.5012 18.6C26.4925 18.503 26.5346 18.4743 26.4909 18.5401C26.4583 18.5892 26.3992 18.6571 26.3147 18.7315C26.1364 18.8886 25.9358 18.9965 25.8191 19.023L26.0413 19.9981ZM27.4935 18.4798C27.4464 18.1708 27.2502 17.8813 27.1289 17.7191C27.0595 17.6263 26.9928 17.5472 26.9436 17.4915C26.9188 17.4634 26.898 17.4406 26.8829 17.4244C26.8753 17.4163 26.8691 17.4097 26.8646 17.405C26.8623 17.4026 26.8604 17.4006 26.8589 17.3991C26.8582 17.3983 26.8576 17.3977 26.8571 17.3972C26.8568 17.3969 26.8566 17.3967 26.8564 17.3964C26.8563 17.3963 26.8562 17.3962 26.8561 17.3962C26.856 17.3961 26.856 17.396 26.856 17.396C26.8559 17.396 26.8559 17.3959 26.4978 17.7449C26.1398 18.094 26.1398 18.0939 26.1397 18.0939C26.1397 18.0939 26.1397 18.0938 26.1396 18.0938C26.1396 18.0937 26.1395 18.0937 26.1395 18.0936C26.1394 18.0935 26.1393 18.0934 26.1393 18.0934C26.1392 18.0933 26.1392 18.0933 26.1393 18.0935C26.1396 18.0937 26.1402 18.0944 26.1412 18.0954C26.1432 18.0975 26.1467 18.1012 26.1515 18.1063C26.1611 18.1166 26.1757 18.1325 26.1937 18.153C26.2301 18.1943 26.2788 18.252 26.328 18.3179C26.378 18.3848 26.4237 18.4534 26.4576 18.5167C26.4939 18.5844 26.5036 18.6218 26.5049 18.6304L27.4935 18.4798ZM7.13533 12.0276C6.63109 13.8584 6.40609 16.4073 6.7293 18.4915C6.89045 19.5307 7.19546 20.5057 7.71452 21.2181C8.25119 21.9547 9.02355 22.4121 10.0348 22.3416L9.96522 21.344C9.3505 21.3869 8.89011 21.1334 8.52274 20.6292C8.13777 20.1009 7.86745 19.3053 7.71749 18.3382C7.41847 16.4101 7.6281 14.0044 8.09943 12.2931L7.13533 12.0276ZM16.6912 12.5508C16.6912 13.0299 17.0901 13.3825 17.5372 13.3825V12.3825C17.6021 12.3825 17.6912 12.4381 17.6912 12.5508H16.6912ZM17.5372 13.3825C17.9843 13.3825 18.3833 13.0299 18.3833 12.5508H17.3833C17.3833 12.4381 17.4724 12.3825 17.5372 12.3825V13.3825ZM18.3833 12.5508C18.3833 12.0717 17.9843 11.7191 17.5372 11.7191V12.7191C17.4724 12.7191 17.3833 12.6635 17.3833 12.5508H18.3833ZM17.5372 11.7191C17.0901 11.7191 16.6912 12.0717 16.6912 12.5508H17.6912C17.6912 12.6635 17.6021 12.7191 17.5372 12.7191V11.7191Z" fill="black"/>
</svg>

<svg width="32" height="32" fill="none" xmlns="http://www.w3.org/2000/svg"><path d="m26.498 17.745-.36.346.002.003.358-.35Zm-2.885-2.749-.311.392.311-.392Zm-2.3-2.726.418-.275-.009-.013-.408.288Zm-2.22-2.452.324-.381-.006-.005-.317.386Zm-1.325-.75-.499.038a.5.5 0 0 0 .299.42l.2-.458Zm-.56-1.38-.118.485.012.003.107-.489Zm-1.961-.246-.188.464a.5.5 0 0 0 .034.012l.154-.476Zm-1.319-.42-.104-.489-.004.001.108.488Zm-2.286 2.05-.372-.334a.5.5 0 0 0 .265.823l.107-.489Zm1.24.27.182.466a.5.5 0 0 0-.076-.954l-.106.488Zm-3.41 1.512.188.463a.494.494 0 0 0 .072-.036l-.26-.427Zm-4.83 2.953a.5.5 0 0 0 .715.7l-.714-.7Zm3.243 10.956a.5.5 0 1 0 .88.474l-.88-.474Zm2.565-3.367-.399-.301.399.302Zm3.768-4.71.243.436.007-.003-.25-.433Zm3.89.36.072-.495-.013-.001-.058.496Zm3.555 2.107.163-.473-.163.473Zm4.267.358-.11-.488-.007.001.117.487Zm1.07-.956.497-.045a.63.63 0 0 0-.003-.03l-.495.075ZM8.1 12.293a.5.5 0 1 0-.965-.265l.964.265Zm1.935 10.049a.5.5 0 0 0-.07-.998l.07.998Zm16.463-4.597.36-.346-.001-.002-.004-.004a3.274 3.274 0 0 1-.016-.017l-.061-.063a70.79 70.79 0 0 0-.98-.988c-.59-.584-1.329-1.288-1.872-1.72l-.622.783c.496.394 1.2 1.064 1.792 1.648a64.58 64.58 0 0 1 1.023 1.034l.015.016.004.004.001.001.36-.346Zm-2.574-3.14c-.967-.77-1.764-1.959-2.193-2.61l-.835.55c.42.637 1.296 1.96 2.406 2.843l.622-.783Zm-2.201-2.623c-.249-.353-.716-.895-1.161-1.382-.444-.486-.904-.959-1.145-1.163l-.647.762c.187.159.608.588 1.054 1.075.443.486.873.988 1.08 1.283l.819-.575Zm-2.312-2.55c-.266-.219-.638-.427-.918-.57a10.877 10.877 0 0 0-.521-.25l-.003-.002h-.001l-.2.458-.2.458h.001l.007.004.026.011a8.843 8.843 0 0 1 .434.21c.272.14.562.307.74.453l.635-.772Zm-1.643-.364.498-.039v-.006l-.001-.014a3.844 3.844 0 0 0-.024-.21 4.854 4.854 0 0 0-.095-.504 2.483 2.483 0 0 0-.218-.591c-.095-.173-.282-.433-.613-.505l-.213.977c-.1-.022-.102-.084-.05.011.044.08.087.2.124.349a3.833 3.833 0 0 1 .09.528c0 .015.002.027.003.034v.008l.499-.038Zm-.44-1.866c-.297-.073-.729-.1-1.077-.126-.394-.03-.693-.058-.85-.11l-.308.952c.297.096.734.13 1.084.156.396.03.718.052.913.1l.237-.972Zm-1.894-.223a1.771 1.771 0 0 1-.199-.107c-.09-.052-.21-.123-.34-.186-.27-.129-.636-.245-1.07-.153l.207.978c.136-.029.267-.001.432.078.086.04.168.089.267.147.088.051.207.121.328.17l.375-.927Zm-1.614-.445a1.348 1.348 0 0 0-.42.19c-.123.08-.253.179-.381.284-.258.212-.538.477-.794.73a25.97 25.97 0 0 0-.877.914l-.057.063-.016.017-.004.004v.002h-.001l.372.334.372.334.004-.004.014-.016a19.034 19.034 0 0 1 .254-.275c.168-.18.397-.42.643-.662.246-.244.502-.485.726-.669.112-.092.208-.164.286-.214.087-.056.115-.06.095-.056l-.216-.976Zm-2.285 3.027 1.24.27.213-.977-1.24-.27-.213.977Zm1.347-.219-.183-.465h-.002l-.006.003-.023.009a95.126 95.126 0 0 0-.394.158c-.26.104-.613.248-.993.408-.743.313-1.633.706-2.07.972l.52.854c.36-.22 1.176-.583 1.938-.904a69.372 69.372 0 0 1 1.283-.525l.084-.033.021-.008.005-.002.002-.001-.182-.466Zm-3.6 1.05c-1.888.769-3.797 2.554-4.64 3.415l.715.7c.837-.856 2.623-2.505 4.303-3.19l-.377-.926Zm-.517 14.845c.569-1.054 1.288-2.485 2.084-3.54l-.798-.602c-.855 1.133-1.623 2.66-2.166 3.668l.88.474Zm2.083-3.539c.23-.303.537-.727.875-1.19.339-.467.712-.978 1.078-1.463.368-.486.724-.94 1.03-1.296a7.01 7.01 0 0 1 .404-.436c.122-.12.196-.174.226-.19l-.486-.874c-.15.083-.3.214-.438.347-.143.14-.3.311-.464.5-.327.38-.698.854-1.07 1.346-.372.493-.75 1.01-1.089 1.477-.341.469-.64.882-.863 1.176l.797.603Zm3.62-4.58c.05-.028.22-.07.566-.062.319.008.7.056 1.096.12.392.066.784.146 1.12.216.32.066.624.13.8.15l.117-.992c-.12-.014-.363-.065-.714-.138a29.29 29.29 0 0 0-1.16-.222 9.282 9.282 0 0 0-1.233-.134c-.358-.009-.78.017-1.092.196l.5.867Zm3.57.423c-.005 0 .037.008.143.06.096.046.216.112.358.198.284.172.621.398.979.64.352.238.723.49 1.058.7.324.203.657.395.925.487l.325-.946c-.147-.05-.392-.183-.719-.388-.317-.199-.671-.44-1.03-.682-.353-.238-.711-.48-1.02-.666a5.434 5.434 0 0 0-.442-.245 1.554 1.554 0 0 0-.435-.148l-.142.99Zm3.463 2.085c.258.088.644.158 1.05.213.417.057.894.104 1.356.138.461.034.913.055 1.28.062.182.003.349.003.487-.002a2.04 2.04 0 0 0 .373-.04l-.234-.973c.006-.001-.004.002-.041.005a2.412 2.412 0 0 1-.135.009c-.114.004-.26.004-.433.001a22.896 22.896 0 0 1-1.224-.06 21.805 21.805 0 0 1-1.294-.13c-.403-.056-.703-.115-.86-.17l-.325.947Zm4.54.372c.338-.077.685-.296.935-.516a2.03 2.03 0 0 0 .348-.389c.083-.125.195-.335.173-.583l-.996.09c-.009-.097.034-.126-.01-.06a1.05 1.05 0 0 1-.176.192c-.179.157-.38.265-.496.291l.222.975Zm1.453-1.518c-.048-.31-.244-.599-.365-.76a3.66 3.66 0 0 0-.264-.315l-.006-.006-.002-.002-.001-.001-.358.349-.358.349.001.001a2.834 2.834 0 0 1 .053.058c.036.041.085.099.134.165.05.067.096.135.13.199a.438.438 0 0 1 .047.113l.989-.15ZM7.134 12.028c-.504 1.83-.729 4.38-.406 6.463.161 1.04.466 2.015.986 2.727.536.737 1.309 1.194 2.32 1.124l-.07-.998c-.614.043-1.075-.21-1.442-.715-.385-.528-.656-1.324-.806-2.29-.299-1.929-.089-4.335.382-6.046l-.964-.265Zm9.556.523c0 .479.4.832.846.832v-1c.065 0 .154.055.154.168h-1Zm.846.832a.839.839 0 0 0 .846-.832h-1c0-.113.09-.168.154-.168v1Zm.846-.832a.839.839 0 0 0-.846-.832v1a.162.162 0 0 1-.154-.168h1Zm-.846-.832a.839.839 0 0 0-.846.832h1c0 .113-.089.168-.154.168v-1Z" fill="#000"/></svg>
